file/nick-jr.svg

<svg clip-rule="evenodd" fill-rule="evenodd" stroke-linejoin="round" stroke-miterlimit="1.41421" viewBox="0 0 560 400" xmlns="http://www.w3.org/2000/svg"><g fill-rule="nonzero" transform="matrix(.922131 0 0 .922131 95.5738 61.6803)"><path d="m39.5 132.1c-9.5-.1-18.3 3.9-24.5 10.1s-10.2 15-10.2 24.5v31.7h26.3v-13.9-17.3c0-3.8.9-7 2.4-9.5 1.6-2.5 3.6-3.9 5.9-4 2.3 0 4.4 1.5 5.9 4s2.4 5.7 2.4 9.5v31.1h26.3v-31.7c0-9.5-3.9-18.3-10.2-24.5-6-6.1-14.8-10.1-24.3-10m63-8.6c2.6-2.6 4.3-6.3 4.3-10.4 0-4-1.6-7.7-4.3-10.3-2.6-2.6-6.3-4.3-10.4-4.3-4 0-7.7 1.6-10.3 4.3-2.6 2.6-4.3 6.3-4.3 10.3s1.6 7.7 4.3 10.4l3.2 3.2c5.4 5.4 5.8 6.8.6 11.9l-2.9 2.9c-2.4 2.4-3.9 5.7-3.9 9.4v47.3h26.6v-47.3c0-3.7-1.5-7-3.9-9.4l-2.9-2.9c-5.1-5.1-4.7-6.6.6-12zm47.1 54.3c-1.6 2.9-3.6 4.6-5.9 4.6s-4.3-1.7-5.9-4.6c-1.5-2.9-2.4-6.6-2.4-11s.9-8.1 2.4-11c1.6-2.9 3.6-4.6 5.9-4.6s4.3 1.7 5.9 4.6c1.1 2.2 1.9 4.8 2.3 7.8h26.4c-.8-8.3-4.5-15.7-10-21.3-6.2-6.2-15-10.2-24.5-10.2s-18.3 3.9-24.5 10.2c-6.2 6.2-10.2 15-10.2 24.5s3.9 18.3 10.2 24.5c4.8 4.8 13.2 10.2 24.5 10.2 8.5 0 16.4-3.1 22.5-8.3 4.4-3.7 10.9-11.2 12-23.1h-26.4c-.3 2.9-1.1 5.5-2.3 7.7m98.3 16c0-.9-.3-1.7-.7-2.4l-14.4-21.8 10-18.1c3.7-6.3 1.6-14.3-4.7-18s-14.3-1.6-18 4.7l-11.9 21.3v-14.2c0-7.3-5.9-13.2-13.2-13.2s-13.2 5.9-13.2 13.2v53.2h26.3v-20.8l13.9 20.8h21.2c2.6-.1 4.7-2.2 4.7-4.7" fill="#f57c14"/><path d="m303.1 174.5c0 16-7.8 26.4-26.6 26.4h-.7c-6.6 0-13.4-1.7-17.7-4.5-7.4-4.8-12.3-12.7-7.4-21 4.5-7.7 20.5-9.1 22.8 4.3.8 4.7 3.3 4.1 3.3-.2v-32c0-9.5 5.9-15.4 13.2-15.4s13.1 5.9 13.1 13.1zm-13.1-46.6c7.2 0 13-5.8 13-13s-5.8-13-13-13-13 5.8-13 13 5.8 13 13 13m45.9 70.5v-35.4c0-2.6 1.6-6.9 4.6-8 3-1.2 5.8.2 9.1 1.4 10.9 4.2 19.4-1.3 20.7-8.5 1.3-7.1-3.4-14-10.5-15.3-8.8-1.6-14.9 1.1-22.1 6.6-.5.4-1.9 1.6-2.3 2-1.7-5.3-6.7-9.2-12.5-9.2-7.3 0-13.1 5.9-13.1 13.1v53.2zm22.5.7c7.2 0 13-5.8 13-13s-5.8-13-13-13-13 5.8-13 13 5.8 13 13 13m27.7-63h.3l4.3 4.8 4.2-4.8h.3v9h-1.6v-5.6l-2.8 3.3h-.3l-2.8-3.3v5.6h-1.6zm-6.2 1.6h-2.7v-1.4h7v1.4h-2.7v7.5h-1.6z" fill="#4ac3cb"/></g></svg>

<?xml version="1.0" encoding="UTF-8" standalone="no"?>
<!DOCTYPE svg PUBLIC "-//W3C//DTD SVG 1.1//EN" "http://www.w3.org/Graphics/SVG/1.1/DTD/svg11.dtd">
<svg width="100%" height="100%" viewBox="0 0 560 400" version="1.1" xmlns="http://www.w3.org/2000/svg" xmlns:xlink="http://www.w3.org/1999/xlink" xml:space="preserve" xmlns:serif="http://www.serif.com/" style="fill-rule:evenodd;clip-rule:evenodd;stroke-linejoin:round;stroke-miterlimit:1.41421;">
    <g transform="matrix(0.922131,0,0,0.922131,95.5738,61.6803)">
        <path id="orange" d="M39.5,132.1C30,132 21.2,136 15,142.2C8.8,148.4 4.8,157.2 4.8,166.7L4.8,198.4L31.1,198.4L31.1,184.5L31.1,167.2C31.1,163.4 32,160.2 33.5,157.7C35.1,155.2 37.1,153.8 39.4,153.7C41.7,153.7 43.8,155.2 45.3,157.7C46.8,160.2 47.7,163.4 47.7,167.2L47.7,198.3L74,198.3L74,166.6C74,157.1 70.1,148.3 63.8,142.1C57.8,136 49,132 39.5,132.1M102.5,123.5C105.1,120.9 106.8,117.2 106.8,113.1C106.8,109.1 105.2,105.4 102.5,102.8C99.9,100.2 96.2,98.5 92.1,98.5C88.1,98.5 84.4,100.1 81.8,102.8C79.2,105.4 77.5,109.1 77.5,113.1C77.5,117.1 79.1,120.8 81.8,123.5L85,126.7C90.4,132.1 90.8,133.5 85.6,138.6L82.7,141.5C80.3,143.9 78.8,147.2 78.8,150.9L78.8,198.2L105.4,198.2L105.4,150.9C105.4,147.2 103.9,143.9 101.5,141.5L98.6,138.6C93.5,133.5 93.9,132 99.2,126.6L102.5,123.5ZM149.6,177.8C148,180.7 146,182.4 143.7,182.4C141.4,182.4 139.4,180.7 137.8,177.8C136.3,174.9 135.4,171.2 135.4,166.8C135.4,162.4 136.3,158.7 137.8,155.8C139.4,152.9 141.4,151.2 143.7,151.2C146,151.2 148,152.9 149.6,155.8C150.7,158 151.5,160.6 151.9,163.6L178.3,163.6C177.5,155.3 173.8,147.9 168.3,142.3C162.1,136.1 153.3,132.1 143.8,132.1C134.3,132.1 125.5,136 119.3,142.3C113.1,148.5 109.1,157.3 109.1,166.8C109.1,176.3 113,185.1 119.3,191.3C124.1,196.1 132.5,201.5 143.8,201.5C152.3,201.5 160.2,198.4 166.3,193.2C170.7,189.5 177.2,182 178.3,170.1L151.9,170.1C151.6,173 150.8,175.6 149.6,177.8M247.9,193.8C247.9,192.9 247.6,192.1 247.2,191.4L232.8,169.6L242.8,151.5C246.5,145.2 244.4,137.2 238.1,133.5C231.8,129.8 223.8,131.9 220.1,138.2L208.2,159.5L208.2,145.3C208.2,138 202.3,132.1 195,132.1C187.7,132.1 181.8,138 181.8,145.3L181.8,198.5L208.1,198.5L208.1,177.7L222,198.5L243.2,198.5C245.8,198.4 247.9,196.3 247.9,193.8" style="fill:rgb(245,124,20);fill-rule:nonzero;"/>
        <path id="blue" d="M303.1,174.5C303.1,190.5 295.3,200.9 276.5,200.9L275.8,200.9C269.2,200.9 262.4,199.2 258.1,196.4C250.7,191.6 245.8,183.7 250.7,175.4C255.2,167.7 271.2,166.3 273.5,179.7C274.3,184.4 276.8,183.8 276.8,179.5L276.8,147.5C276.8,138 282.7,132.1 290,132.1C297.3,132.1 303.1,138 303.1,145.2L303.1,174.5ZM290,127.9C297.2,127.9 303,122.1 303,114.9C303,107.7 297.2,101.9 290,101.9C282.8,101.9 277,107.7 277,114.9C277,122.1 282.8,127.9 290,127.9M335.9,198.4L335.9,163C335.9,160.4 337.5,156.1 340.5,155C343.5,153.8 346.3,155.2 349.6,156.4C360.5,160.6 369,155.1 370.3,147.9C371.6,140.8 366.9,133.9 359.8,132.6C351,131 344.9,133.7 337.7,139.2C337.2,139.6 335.8,140.8 335.4,141.2C333.7,135.9 328.7,132 322.9,132C315.6,132 309.8,137.9 309.8,145.1L309.8,198.3L335.9,198.4ZM358.4,199.1C365.6,199.1 371.4,193.3 371.4,186.1C371.4,178.9 365.6,173.1 358.4,173.1C351.2,173.1 345.4,178.9 345.4,186.1C345.4,193.3 351.2,199.1 358.4,199.1M386.1,136.1L386.4,136.1L390.7,140.9L394.9,136.1L395.2,136.1L395.2,145.1L393.6,145.1L393.6,139.5L390.8,142.8L390.5,142.8L387.7,139.5L387.7,145.1L386.1,145.1L386.1,136.1ZM379.9,137.7L377.2,137.7L377.2,136.3L384.2,136.3L384.2,137.7L381.5,137.7L381.5,145.2L379.9,145.2L379.9,137.7Z" style="fill:rgb(74,195,203);fill-rule:nonzero;"/>
    </g>
</svg>
